packages/ffe-icons/icons/filled/sm/ungroup.svg

<svg xmlns="http://www.w3.org/2000/svg" height="20" viewBox="0 -960 960 960" width="20"><path d="M539.001-503.233 356.692-319.924q-8.308 8.308-17.692 8.116-9.384-.193-17.692-8.5-8.307-8.308-8.307-18.448 0-10.141 8.307-18.32l181.925-181.925H349q-11.05 0-18.524-7.418-7.475-7.418-7.475-18.384 0-10.966 7.475-18.581 7.474-7.615 18.524-7.615h209.846q13.665 0 22.909 9.244t9.244 22.909V-349q0 11.05-7.418 18.524-7.418 7.475-18.384 7.475-10.966 0-18.581-7.475-7.615-7.474-7.615-18.524v-154.233ZM505.999-744q-11.049 0-18.524-7.418Q480-758.836 480-769.802q0-10.966 7.475-18.581 7.475-7.616 18.524-7.616h225.692q26.527 0 45.417 18.891 18.891 18.89 18.891 45.417v225.692q0 11.049-7.419 18.524Q781.162-480 770.196-480q-10.966 0-18.581-7.475T744-505.999v-225.692q0-5.385-3.462-8.847-3.462-3.462-8.847-3.462H505.999Zm-277.69 579.999q-27.008 0-45.658-18.65-18.65-18.65-18.65-45.658v-541.69q0-11.05 7.419-18.525 7.418-7.475 18.384-7.475 10.966 0 18.581 7.475T216-769.999v541.69q0 4.616 3.846 8.463 3.847 3.846 8.463 3.846h541.69q11.05 0 18.525 7.418 7.475 7.418 7.475 18.384 0 10.966-7.475 18.581-7.475 7.616-18.525 7.616h-541.69Z"/></svg>

<svg xmlns="http://www.w3.org/2000/svg" height="20" viewBox="0 -960 960 960" width="20"><path d="M539-503.23 356.69-319.92q-8.31 8.3-17.69 8.11-9.38-.19-17.69-8.5T313-338.76q0-10.14 8.31-18.32L503.23-539H349q-11.05 0-18.52-7.42-7.48-7.42-7.48-18.38 0-10.97 7.48-18.58Q337.95-591 349-591h209.85q13.66 0 22.91 9.24 9.24 9.25 9.24 22.91V-349q0 11.05-7.42 18.52-7.42 7.48-18.38 7.48-10.97 0-18.58-7.48Q539-337.95 539-349v-154.23ZM506-744q-11.05 0-18.53-7.42-7.47-7.42-7.47-18.38 0-10.97 7.47-18.58Q494.95-796 506-796h225.69q26.53 0 45.42 18.89T796-731.69V-506q0 11.05-7.42 18.53-7.42 7.47-18.38 7.47-10.97 0-18.58-7.47Q744-494.95 744-506v-225.69q0-5.39-3.46-8.85t-8.85-3.46H506ZM228.31-164q-27.01 0-45.66-18.65Q164-201.3 164-228.31V-770q0-11.05 7.42-18.52 7.42-7.48 18.38-7.48 10.97 0 18.58 7.48Q216-781.05 216-770v541.69q0 4.62 3.85 8.46 3.84 3.85 8.46 3.85H770q11.05 0 18.52 7.42 7.48 7.42 7.48 18.38 0 10.97-7.48 18.58Q781.05-164 770-164H228.31Z"/></svg>
